glitch-avatars-svg/base_avatar/Avatar.fla/placeholder symbols 2/Avatar_sideArmUpperOffside2.svg

<?xml version="1.0" encoding="UTF-8" standalone="no"?>
<!-- Generator: flash2svg, http://dissentgraphics.com/tools/flash2svg -->

<svg
   xmlns:dc="http://purl.org/dc/elements/1.1/"
   xmlns:cc="http://creativecommons.org/ns#"
   xmlns:rdf="http://www.w3.org/1999/02/22-rdf-syntax-ns#"
   xmlns:svg="http://www.w3.org/2000/svg"
   xmlns="http://www.w3.org/2000/svg"
   xmlns:sodipodi="http://sodipodi.sourceforge.net/DTD/sodipodi-0.dtd"
   xmlns:inkscape="http://www.inkscape.org/namespaces/inkscape"
   id="Avatar"
   image-rendering="auto"
   version="1.1"
   x="0px"
   y="0px"
   width="7.5502415"
   height="18.342665"
   viewBox="0 0 7.5502415 18.342665"
   inkscape:version="0.48.4 r9939"
   sodipodi:docname="Avatar_sideArmUpperOffside2.svg">
  <metadata
     id="metadata3080">
    <rdf:RDF>
      <cc:Work
         rdf:about="">
        <dc:format>image/svg+xml</dc:format>
        <dc:type
           rdf:resource="http://purl.org/dc/dcmitype/StillImage" />
      </cc:Work>
    </rdf:RDF>
  </metadata>
  <sodipodi:namedview
     pagecolor="#ffffff"
     bordercolor="#666666"
     borderopacity="1"
     objecttolerance="10"
     gridtolerance="10"
     guidetolerance="10"
     inkscape:pageopacity="0"
     inkscape:pageshadow="2"
     inkscape:window-width="640"
     inkscape:window-height="480"
     id="namedview3078"
     showgrid="false"
     fit-margin-top="0"
     fit-margin-left="0"
     fit-margin-right="0"
     fit-margin-bottom="0"
     inkscape:zoom="1.8730159"
     inkscape:cx="36.9375"
     inkscape:cy="-46.070341"
     inkscape:window-x="0"
     inkscape:window-y="0"
     inkscape:window-maximized="0"
     inkscape:current-layer="Avatar" />
  <defs
     id="defs3057" />
  <g
     id="sideArmUpperOffside3"
     overflow="visible"
     style="overflow:visible"
     transform="translate(2.9375,1.4130065)">
    <g
       id="sideArmUpperOffside2_4">
      <g
         id="element2">
        <path
           id="path12"
           d="M 1.625,-0.075 Q 0.55,-1.159 0.15,-1.3 c -0.7,-0.25 -1.35,-0.05 -2,0.6 -0.25,0.3 -0.4,0.65 -0.45,1.05 0,0.15 0,0.25 0,0.4 -0.25,1.15 -0.45,2.3 -0.5,3.5 -0.15,2.45 -0.1,4.9 0.1,7.35 0.05,-0.4 0.15,-0.8 0.2,-1.25 0,0.2 0,0.4 0.05,0.6 0.1,0.65 0.15,1.35 0.1,2 -0.05,1.4 0.3,2.45 1.1,3.15 C -1.4,15.85 -1.5,15.6 -1.6,15.3 -1.65,15.15 -1.65,15 -1.7,14.85 c -0.05,-0.2 -0.1,-0.4 -0.1,-0.6 -0.15,-1.8 -0.4,-3.6 -0.65,-5.35 0,-0.3 0,-0.6 0,-0.95 -0.05,-1.8 0,-3.55 0.15,-5.3 0.25,-0.3 0.4,-0.7 0.35,-1.15 C -2,1 -1.9,0.55 -1.7,0.15 c 0.55,-1.2 1.4,-1.45 2.5,-0.75 0.05,0.05 0.05,0.05 0.1,0.1 0.45,0.5 0.85,1.05 1.1,1.7 0.95,2.25 1.55,4.65 1.8,7.15 0,0 0.05,0 0.05,0 l 0,-0.025 0,0.025 c 0.35,2.15 0.3,4.3 -0.05,6.45 -0.05,0.05 -0.05,0.05 -0.05,0.1 -0.15,0.3 -0.3,0.55 -0.55,0.7 0.1,-0.05 0.2,-0.1 0.25,-0.15 -0.15,0.3 -0.3,0.6 -0.5,0.9 0.9,-0.5 1.35,-1.3 1.4,-2.45 0.2,-0.55 0.3,-1.2 0.25,-1.85 C 4.45,10.05 4.3,8.45 4.05,7.3 4,7.25 4,7.15 4,7.1 3.9,6.05 3.75,5.05 3.55,4.1 c 0,0.05 0,0.15 0,0.2 C 3.5,3.95 3.4,3.6 3.35,3.25 3.3,3.4 3.3,3.6 3.3,3.75 3.25,3.6 3.2,3.45 3.2,3.3 2.85,1.75 2.35,0.65 1.65,-0.05 m -1.75,16.5 c -0.05,0.05 -0.05,0.05 -0.05,0.1 -0.15,-0.05 -0.25,-0.15 -0.4,-0.25 0.2,0.15 0.45,0.3 0.7,0.35 C 0.1,16.6 0,16.55 -0.1,16.45 z"
           inkscape:connector-curvature="0"
           style="fill:#663300" />
        <path
           id="path13"
           d="M 0.9,-0.5 C 0.85,-0.55 0.85,-0.55 0.8,-0.6 -0.3,-1.3 -1.15,-1.05 -1.7,0.15 -1.9,0.55 -2,1 -1.95,1.5 c 0.05,0.45 -0.1,0.85 -0.35,1.15 -0.15,1.75 -0.2,3.5 -0.15,5.3 0,0.35 0,0.65 0,0.95 0.25,1.75 0.5,3.55 0.65,5.35 0,0.2 0.05,0.4 0.1,0.6 l 0.05,0 c 0,0.05 0,0.05 0,0.1 -0.05,-0.05 -0.05,-0.05 -0.05,-0.1 0.05,0.15 0.05,0.3 0.1,0.45 0.1,0.3 0.2,0.55 0.35,0.8 0.1,0.1 0.2,0.2 0.35,0.3 l 0,-0.025 0.025,0.025 0.025,0 c 0,0.05 0,0.05 0.05,0.05 -0.15,-0.15 -0.3,-0.3 -0.4,-0.45 0.2,0.15 0.4,0.2 0.6,0.25 0,0 0,0 0.05,0.05 0.15,0.1 0.25,0.2 0.4,0.25 0,-0.05 0,-0.05 0.05,-0.1 0.1,0.1 0.2,0.15 0.25,0.2 0.5,0.15 1.05,0.2 1.7,0.05 l 0.05,0 C 2.25,16.65 2.5,16.55 2.75,16.45 2.8,16.4 2.9,16.4 2.95,16.35 l -0.025,-0.025 0,0.025 0.025,0 c 0.2,-0.3 0.35,-0.6 0.5,-0.9 -0.05,0.05 -0.15,0.1 -0.25,0.15 0.25,-0.15 0.4,-0.4 0.55,-0.7 0,-0.05 0,-0.05 0.05,-0.1 0.35,-2.15 0.4,-4.3 0.05,-6.45 l -0.05,0 C 3.55,5.85 2.95,3.45 2,1.2 1.75,0.55 1.35,0 0.9,-0.5 z"
           inkscape:connector-curvature="0"
           style="fill:#ffffcc" />
      </g>
      <animate
         attributeName="display"
         begin="0s"
         repeatCount="indefinite"
         dur="0.167s"
         keyTimes="0;0.798;1"
         values="none;inline;none"
         id="animate3064" />
    </g>
    <g
       id="sideArmUpperOffside2_2">
      <g
         id="element1">
        <path
           id="path10"
           d="m -0.1,-1.2 0.05,0 c -0.15,-0.15 -0.35,-0.25 -0.6,-0.2 -0.45,0.1 -0.85,0.3 -1.2,0.6 -0.45,0.45 -0.65,1.05 -0.7,1.75 -0.05,0.35 -0.05,0.65 0,1 L -2.575,1.925 -2.6,1.9 c 0,1.05 -0.05,2.15 -0.15,3.25 -0.2,2.25 -0.1,4.4 0.3,6.55 0.05,-0.05 0.05,-0.15 0.1,-0.2 0.05,0.65 0.05,1.35 0.1,2.05 0.1,1.15 0.5,2 1.2,2.5 -0.3,-0.4 -0.5,-0.9 -0.65,-1.5 -0.15,-0.6 -0.15,-1.2 -0.1,-1.8 C -2,11.8 -2.15,10.85 -2.3,9.9 -2.4,7.8 -2.4,5.7 -2.35,3.65 -2.2,3.1 -2.2,2.55 -2.25,1.9 c -0.15,-1.65 0.5,-2.65 1.9,-3 0.25,0.15 0.6,0.4 0.95,0.7 0.6,0.5 1.1,1.1 1.55,1.75 0,0 0,0 0,0.05 0.55,1.2 0.95,2.45 1.2,3.75 0,1.25 0.15,2.5 0.5,3.7 C 3.9,8.55 3.9,8.25 3.9,7.9 3.95,9.35 4.05,10.85 4.2,12.35 4.1,12.6 4.05,12.9 4.05,13.25 4.1,14.45 3.65,15.35 2.8,16 2.95,15.85 3.15,15.75 3.3,15.6 3.25,15.75 3.2,15.95 3.15,16.1 3.3,15.95 3.45,15.8 3.6,15.65 4.35,14.7 4.65,13.7 4.5,12.6 4.55,12.05 4.6,11.5 4.55,10.9 4.4,9.15 4.15,7.5 3.85,5.95 3.8,4.95 3.6,4 3.25,3.15 c 0,0.15 0,0.25 0.05,0.4 -0.35,-1.5 -1,-2.85 -1.95,-4.05 0.1,0.2 0.2,0.4 0.3,0.65 C 1.2,-0.5 0.6,-0.95 -0.1,-1.2 z"
           inkscape:connector-curvature="0"
           style="fill:#663300" />
        <path
           id="path11"
           d="m 0.6,-0.4 c -0.35,-0.3 -0.7,-0.55 -0.95,-0.7 -1.4,0.35 -2.05,1.35 -1.9,3 0.05,0.65 0.05,1.2 -0.1,1.75 C -2.4,5.7 -2.4,7.8 -2.3,9.9 c 0.15,0.95 0.3,1.9 0.5,2.85 -0.05,0.6 -0.05,1.2 0.1,1.8 0.15,0.6 0.35,1.1 0.65,1.5 0.15,0.1 0.3,0.2 0.45,0.25 l 0,-0.025 0.3,0.125 c 0,0 0,0 0.05,0.05 C -0.1,16.6 0,16.7 0.15,16.75 0.2,16.7 0.2,16.7 0.15,16.65 1,17.1 1.85,17 2.6,16.4 l 0.025,0 0.025,0 C 2.7,16.35 2.8,16.35 2.9,16.3 3,16.25 3.1,16.15 3.15,16.1 3.2,15.95 3.25,15.75 3.3,15.6 3.15,15.75 2.95,15.85 2.8,16 3.65,15.35 4.1,14.45 4.05,13.25 4.05,12.9 4.1,12.6 4.2,12.35 4.05,10.85 3.95,9.35 3.9,7.9 3.9,8.25 3.9,8.55 3.85,8.85 3.5,7.65 3.35,6.4 3.35,5.15 3.1,3.85 2.7,2.6 2.15,1.4 c 0,-0.05 0,-0.05 0,-0.05 C 1.7,0.7 1.2,0.1 0.6,-0.4 z"
           inkscape:connector-curvature="0"
           style="fill:#ffffcc" />
      </g>
      <animate
         attributeName="display"
         begin="0s"
         repeatCount="indefinite"
         dur="0.167s"
         keyTimes="0;0.399;0.798;1"
         values="none;inline;none;none"
         id="animate3070" />
    </g>
    <g
       id="sideArmUpperOffside2_0">
      <g
         id="element">
        <path
           id="path"
           d="M -0.1,-1.35 Q -1.05,-1.5 -1.85,-0.8 C -2.2,-0.45 -2.4,-0.05 -2.5,0.45 -2.55,0.6 -2.55,0.7 -2.55,0.8 c 0,0.05 0,0.1 0,0.15 0,0.1 0,0.2 0,0.35 -0.05,0.6 -0.15,1.25 -0.2,1.9 -0.25,1.75 -0.25,3.45 0,5.15 0,0.9 0.1,1.75 0.25,2.6 0,0.1 0,0.2 0.05,0.35 0.1,0.65 0.15,1.3 0.15,1.95 -0.05,1.45 0.5,2.5 1.65,3.1 -0.25,-0.25 -0.5,-0.5 -0.65,-0.8 -0.25,-0.35 -0.4,-0.8 -0.45,-1.25 -0.25,-1.35 -0.4,-2.75 -0.5,-4.1 0,-0.25 0,-0.45 0,-0.65 C -2.3,7.3 -2.3,5.05 -2.35,2.8 -2.4,3.05 -2.4,3.35 -2.45,3.6 l 0,0.3 C -2.5,3.8 -2.5,3.7 -2.45,3.6 -2.5,3.25 -2.5,2.95 -2.5,2.6 c 0,-0.15 0,-0.25 0,-0.35 0.05,0.1 0.05,0.2 0.1,0.35 0.15,-0.5 0.25,-1 0.3,-1.5 0.2,-1.6 0.9,-2.3 2.05,-2.15 0.15,0.15 0.35,0.25 0.6,0.4 0.05,0.05 0.15,0.1 0.35,0.15 0.05,0.05 0.1,0.05 0.15,0.1 0.2,0.25 0.4,0.45 0.55,0.7 0,0.05 0,0.05 0.05,0.05 0.25,0.35 0.45,0.8 0.6,1.3 0.05,0.2 0.15,0.4 0.2,0.6 0.05,0.15 0.1,0.4 0.2,0.65 0.15,0.35 0.25,0.75 0.3,1.15 0.4,1.8 0.65,3.6 0.8,5.4 C 3.8,8.8 3.85,8.1 3.85,7.45 3.9,7.65 3.9,7.85 3.95,8.1 4,8.35 4,9.45 4,11.5 4,13.35 3.8,14.55 3.35,15.05 3.7,14.7 3.95,14.35 4.1,13.9 4.3,13.4 4.4,12.85 4.4,12.2 4.4,10.1 4.2,8.05 3.85,6.05 3.8,5.6 3.7,5.15 3.6,4.75 3.55,4.25 3.4,3.75 3.25,3.3 3.2,3.25 3.2,3.15 3.2,3.1 3.2,3.05 3.2,2.95 3.15,2.9 2.95,2.5 2.8,2.1 2.65,1.65 2.5,1.1 2.25,0.65 2,0.3 2.05,0.35 2.15,0.4 2.2,0.45 2.05,0.2 1.85,0 1.6,-0.2 1.5,-0.3 1.4,-0.4 1.25,-0.45 1,-0.7 0.8,-0.95 0.55,-1.2 c 0,0.1 0.05,0.2 0.1,0.3 0,0 0,0 0.05,0.05 -0.05,0 -0.05,0 -0.1,-0.05 C 0.45,-1.15 0.2,-1.3 -0.1,-1.35 z M 4.15,13.9 C 4.15,13.95 4,14.3 3.75,14.85 3.45,15.4 3.2,15.8 3,16 2.95,16.05 2.95,16.05 2.9,16.1 2.95,16.05 3,16.05 3.05,16 3,16.05 2.9,16.15 2.85,16.2 2.8,16.25 2.8,16.3 2.8,16.35 3.15,16.2 3.4,16 3.6,15.7 4.2,14.85 4.45,14.05 4.4,13.25 4.3,13.4 4.25,13.55 4.2,13.7 c 0,0.05 0,0.15 -0.05,0.2 z"
           inkscape:connector-curvature="0"
           style="fill:#663300" />
        <path
           id="path1"
           d="M 0.9,-0.5 C 0.7,-0.55 0.6,-0.6 0.55,-0.65 0.3,-0.8 0.1,-0.9 -0.05,-1.05 -1.2,-1.2 -1.9,-0.5 -2.1,1.1 c -0.05,0.5 -0.15,1 -0.3,1.5 l -0.1,0 c 0,0.35 0,0.65 0.05,1 l -0.025,0 0.025,0 c 0.05,-0.25 0.05,-0.55 0.1,-0.8 0.05,2.25 0.05,4.5 0.1,6.75 0,0.2 0,0.4 0,0.65 0.1,1.35 0.25,2.75 0.5,4.1 0.05,0.45 0.2,0.9 0.45,1.25 L -1.325,15.525 -1.3,15.5 c 0.75,1.2 1.85,1.55 3.35,1 0.25,-0.1 0.5,-0.2 0.7,-0.35 0.05,0 0.05,0 0.1,-0.05 L 2.9,16.075 2.9,16.1 C 2.95,16.05 2.95,16.05 3,16 3.2,15.8 3.45,15.4 3.75,14.85 4,14.3 4.15,13.95 4.15,13.9 l -0.05,0 C 3.95,14.35 3.7,14.7 3.35,15.05 3.8,14.55 4,13.35 4,11.5 4,9.45 4,8.35 3.95,8.1 3.9,7.85 3.9,7.65 3.85,7.45 3.85,8.1 3.8,8.8 3.75,9.45 3.6,7.65 3.35,5.85 2.95,4.05 2.9,3.65 2.8,3.25 2.65,2.9 2.55,2.65 2.5,2.4 2.45,2.25 2.4,2.05 2.3,1.85 2.25,1.65 2.1,1.15 1.9,0.7 1.65,0.35 1.6,0.35 1.6,0.35 1.6,0.3 1.45,0.05 1.25,-0.15 1.05,-0.4 1,-0.45 0.95,-0.45 0.9,-0.5 z m 1.9,16.85 c 0,-0.05 0,-0.1 0.05,-0.15 -0.1,0.05 -0.2,0.15 -0.3,0.2 0.1,-0.05 0.2,-0.05 0.25,-0.05 z"
           inkscape:connector-curvature="0"
           style="fill:#ffffcc" />
      </g>
      <animate
         attributeName="display"
         begin="0s"
         repeatCount="indefinite"
         dur="0.167s"
         keyTimes="0;0.399;1"
         values="inline;none;none"
         id="animate3076" />
    </g>
  </g>
</svg>

<?xml version="1.0" encoding="utf-8"?>
<!-- Generator: flash2svg, http://dissentgraphics.com/tools/flash2svg -->
<svg xmlns:xlink="http://www.w3.org/1999/xlink" id="Avatar" image-rendering="auto" baseProfile="basic" version="1.1" x="0px" y="0px" width="68" height="126" xmlns="http://www.w3.org/2000/svg" viewBox="0 0 68 126">
  <defs/>
  <g id="sideArmUpperOffside3" overflow="visible">
    <g id="sideArmUpperOffside2_4">
      <g id="element2">
        <path id="path12" fill="#630" d="M1.625,-0.075 Q0.55,-1.159 0.15,-1.3 C-0.55,-1.55 -1.2,-1.35 -1.85,-0.7 -2.1,-0.4 -2.25,-0.05 -2.3,0.35 -2.3,0.5 -2.3,0.6 -2.3,0.75 -2.55,1.9 -2.75,3.05 -2.8,4.25 -2.95,6.7 -2.9,9.15 -2.7,11.6 -2.65,11.2 -2.55,10.8 -2.5,10.35 -2.5,10.55 -2.5,10.75 -2.45,10.95 -2.35,11.6 -2.3,12.3 -2.35,12.95 -2.4,14.35 -2.05,15.4 -1.25,16.1 -1.4,15.85 -1.5,15.6 -1.6,15.3 -1.65,15.15 -1.65,15 -1.7,14.85 -1.75,14.65 -1.8,14.45 -1.8,14.25 -1.95,12.45 -2.2,10.65 -2.45,8.9 -2.45,8.6 -2.45,8.3 -2.45,7.95 -2.5,6.15 -2.45,4.4 -2.3,2.65 -2.05,2.35 -1.9,1.95 -1.95,1.5 -2,1 -1.9,0.55 -1.7,0.15 -1.15,-1.05 -0.3,-1.3 0.8,-0.6 0.85,-0.55 0.85,-0.55 0.9,-0.5 1.35,0 1.75,0.55 2,1.2 2.95,3.45 3.55,5.85 3.8,8.35 3.8,8.35 3.85,8.35 3.85,8.35 L3.85,8.325 L3.85,8.35 C4.2,10.5 4.15,12.65 3.8,14.8 3.75,14.85 3.75,14.85 3.75,14.9 3.6,15.2 3.45,15.45 3.2,15.6 3.3,15.55 3.4,15.5 3.45,15.45 3.3,15.75 3.15,16.05 2.95,16.35 3.85,15.85 4.3,15.05 4.35,13.9 4.55,13.35 4.65,12.7 4.6,12.05 4.45,10.05 4.3,8.45 4.05,7.3 4,7.25 4,7.15 4,7.1 3.9,6.05 3.75,5.05 3.55,4.1 3.55,4.15 3.55,4.25 3.55,4.3 3.5,3.95 3.4,3.6 3.35,3.25 3.3,3.4 3.3,3.6 3.3,3.75 3.25,3.6 3.2,3.45 3.2,3.3 2.85,1.75 2.35,0.65 1.65,-0.05 M-0.1,16.45 C-0.15,16.5 -0.15,16.5 -0.15,16.55 -0.3,16.5 -0.4,16.4 -0.55,16.3 -0.35,16.45 -0.1,16.6 0.15,16.65 0.1,16.6 0,16.55 -0.1,16.45z"/>
        <path id="path13" fill="#FFC" d="M0.9,-0.5 C0.85,-0.55 0.85,-0.55 0.8,-0.6 -0.3,-1.3 -1.15,-1.05 -1.7,0.15 -1.9,0.55 -2,1 -1.95,1.5 -1.9,1.95 -2.05,2.35 -2.3,2.65 -2.45,4.4 -2.5,6.15 -2.45,7.95 -2.45,8.3 -2.45,8.6 -2.45,8.9 -2.2,10.65 -1.95,12.45 -1.8,14.25 -1.8,14.45 -1.75,14.65 -1.7,14.85 L-1.65,14.85 C-1.65,14.9 -1.65,14.9 -1.65,14.95 -1.7,14.9 -1.7,14.9 -1.7,14.85 -1.65,15 -1.65,15.15 -1.6,15.3 -1.5,15.6 -1.4,15.85 -1.25,16.1 -1.15,16.2 -1.05,16.3 -0.9,16.4 L-0.9,16.375 L-0.875,16.4 L-0.85,16.4 C-0.85,16.45 -0.85,16.45 -0.8,16.45 -0.95,16.3 -1.1,16.15 -1.2,16 -1,16.15 -0.8,16.2 -0.6,16.25 -0.6,16.25 -0.6,16.25 -0.55,16.3 -0.4,16.4 -0.3,16.5 -0.15,16.55 -0.15,16.5 -0.15,16.5 -0.1,16.45 0,16.55 0.1,16.6 0.15,16.65 0.65,16.8 1.2,16.85 1.85,16.7 L1.9,16.7 C2.25,16.65 2.5,16.55 2.75,16.45 2.8,16.4 2.9,16.4 2.95,16.35 L2.925,16.325 L2.925,16.35 L2.95,16.35 C3.15,16.05 3.3,15.75 3.45,15.45 3.4,15.5 3.3,15.55 3.2,15.6 3.45,15.45 3.6,15.2 3.75,14.9 3.75,14.85 3.75,14.85 3.8,14.8 4.15,12.65 4.2,10.5 3.85,8.35 L3.8,8.35 C3.55,5.85 2.95,3.45 2,1.2 1.75,0.55 1.35,0 0.9,-0.5z"/>
      </g>
      <animate attributeName="display" begin="0s" repeatCount="indefinite" dur="0.167s" keyTimes="0;0.798;1" values="none;inline;none"/>
    </g>
    <g id="sideArmUpperOffside2_2">
      <g id="element1">
        <path id="path10" fill="#630" d="M-0.1,-1.2 L-0.05,-1.2 C-0.2,-1.35 -0.4,-1.45 -0.65,-1.4 -1.1,-1.3 -1.5,-1.1 -1.85,-0.8 -2.3,-0.35 -2.5,0.25 -2.55,0.95 -2.6,1.3 -2.6,1.6 -2.55,1.95 L-2.575,1.925 L-2.6,1.9 C-2.6,2.95 -2.65,4.05 -2.75,5.15 -2.95,7.4 -2.85,9.55 -2.45,11.7 -2.4,11.65 -2.4,11.55 -2.35,11.5 -2.3,12.15 -2.3,12.85 -2.25,13.55 -2.15,14.7 -1.75,15.55 -1.05,16.05 -1.35,15.65 -1.55,15.15 -1.7,14.55 -1.85,13.95 -1.85,13.35 -1.8,12.75 -2,11.8 -2.15,10.85 -2.3,9.9 -2.4,7.8 -2.4,5.7 -2.35,3.65 -2.2,3.1 -2.2,2.55 -2.25,1.9 -2.4,0.25 -1.75,-0.75 -0.35,-1.1 -0.1,-0.95 0.25,-0.7 0.6,-0.4 1.2,0.1 1.7,0.7 2.15,1.35 2.15,1.35 2.15,1.35 2.15,1.4 2.7,2.6 3.1,3.85 3.35,5.15 3.35,6.4 3.5,7.65 3.85,8.85 3.9,8.55 3.9,8.25 3.9,7.9 3.95,9.35 4.05,10.85 4.2,12.35 4.1,12.6 4.05,12.9 4.05,13.25 4.1,14.45 3.65,15.35 2.8,16 2.95,15.85 3.15,15.75 3.3,15.6 3.25,15.75 3.2,15.95 3.15,16.1 3.3,15.95 3.45,15.8 3.6,15.65 4.35,14.7 4.65,13.7 4.5,12.6 4.55,12.05 4.6,11.5 4.55,10.9 4.4,9.15 4.15,7.5 3.85,5.95 3.8,4.95 3.6,4 3.25,3.15 3.25,3.3 3.25,3.4 3.3,3.55 2.95,2.05 2.3,0.7 1.35,-0.5 1.45,-0.3 1.55,-0.1 1.65,0.15 1.2,-0.5 0.6,-0.95 -0.1,-1.2z"/>
        <path id="path11" fill="#FFC" d="M0.6,-0.4 C0.25,-0.7 -0.1,-0.95 -0.35,-1.1 -1.75,-0.75 -2.4,0.25 -2.25,1.9 -2.2,2.55 -2.2,3.1 -2.35,3.65 -2.4,5.7 -2.4,7.8 -2.3,9.9 -2.15,10.85 -2,11.8 -1.8,12.75 -1.85,13.35 -1.85,13.95 -1.7,14.55 -1.55,15.15 -1.35,15.65 -1.05,16.05 -0.9,16.15 -0.75,16.25 -0.6,16.3 L-0.6,16.275 L-0.3,16.4 C-0.3,16.4 -0.3,16.4 -0.25,16.45 -0.1,16.6 0,16.7 0.15,16.75 0.2,16.7 0.2,16.7 0.15,16.65 1,17.1 1.85,17 2.6,16.4 L2.625,16.4 L2.65,16.4 C2.7,16.35 2.8,16.35 2.9,16.3 3,16.25 3.1,16.15 3.15,16.1 3.2,15.95 3.25,15.75 3.3,15.6 3.15,15.75 2.95,15.85 2.8,16 3.65,15.35 4.1,14.45 4.05,13.25 4.05,12.9 4.1,12.6 4.2,12.35 4.05,10.85 3.95,9.35 3.9,7.9 3.9,8.25 3.9,8.55 3.85,8.85 3.5,7.65 3.35,6.4 3.35,5.15 3.1,3.85 2.7,2.6 2.15,1.4 2.15,1.35 2.15,1.35 2.15,1.35 1.7,0.7 1.2,0.1 0.6,-0.4z"/>
      </g>
      <animate attributeName="display" begin="0s" repeatCount="indefinite" dur="0.167s" keyTimes="0;0.399;0.798;1" values="none;inline;none;none"/>
    </g>
    <g id="sideArmUpperOffside2_0">
      <g id="element">
        <path id="path" fill="#630" d="M-0.1,-1.35 Q-1.05,-1.5 -1.85,-0.8 C-2.2,-0.45 -2.4,-0.05 -2.5,0.45 -2.55,0.6 -2.55,0.7 -2.55,0.8 -2.55,0.85 -2.55,0.9 -2.55,0.95 -2.55,1.05 -2.55,1.15 -2.55,1.3 -2.6,1.9 -2.7,2.55 -2.75,3.2 -3,4.95 -3,6.65 -2.75,8.35 -2.75,9.25 -2.65,10.1 -2.5,10.95 -2.5,11.05 -2.5,11.15 -2.45,11.3 -2.35,11.95 -2.3,12.6 -2.3,13.25 -2.35,14.7 -1.8,15.75 -0.65,16.35 -0.9,16.1 -1.15,15.85 -1.3,15.55 -1.55,15.2 -1.7,14.75 -1.75,14.3 -2,12.95 -2.15,11.55 -2.25,10.2 -2.25,9.95 -2.25,9.75 -2.25,9.55 -2.3,7.3 -2.3,5.05 -2.35,2.8 -2.4,3.05 -2.4,3.35 -2.45,3.6 L-2.45,3.9 C-2.5,3.8 -2.5,3.7 -2.45,3.6 -2.5,3.25 -2.5,2.95 -2.5,2.6 -2.5,2.45 -2.5,2.35 -2.5,2.25 -2.45,2.35 -2.45,2.45 -2.4,2.6 -2.25,2.1 -2.15,1.6 -2.1,1.1 -1.9,-0.5 -1.2,-1.2 -0.05,-1.05 0.1,-0.9 0.3,-0.8 0.55,-0.65 0.6,-0.6 0.7,-0.55 0.9,-0.5 0.95,-0.45 1,-0.45 1.05,-0.4 1.25,-0.15 1.45,0.05 1.6,0.3 1.6,0.35 1.6,0.35 1.65,0.35 1.9,0.7 2.1,1.15 2.25,1.65 2.3,1.85 2.4,2.05 2.45,2.25 2.5,2.4 2.55,2.65 2.65,2.9 2.8,3.25 2.9,3.65 2.95,4.05 3.35,5.85 3.6,7.65 3.75,9.45 3.8,8.8 3.85,8.1 3.85,7.45 3.9,7.65 3.9,7.85 3.95,8.1 4,8.35 4,9.45 4,11.5 4,13.35 3.8,14.55 3.35,15.05 3.7,14.7 3.95,14.35 4.1,13.9 4.3,13.4 4.4,12.85 4.4,12.2 4.4,10.1 4.2,8.05 3.85,6.05 3.8,5.6 3.7,5.15 3.6,4.75 3.55,4.25 3.4,3.75 3.25,3.3 3.2,3.25 3.2,3.15 3.2,3.1 3.2,3.05 3.2,2.95 3.15,2.9 2.95,2.5 2.8,2.1 2.65,1.65 2.5,1.1 2.25,0.65 2,0.3 2.05,0.35 2.15,0.4 2.2,0.45 2.05,0.2 1.85,0 1.6,-0.2 1.5,-0.3 1.4,-0.4 1.25,-0.45 1,-0.7 0.8,-0.95 0.55,-1.2 0.55,-1.1 0.6,-1 0.65,-0.9 0.65,-0.9 0.65,-0.9 0.7,-0.85 0.65,-0.85 0.65,-0.85 0.6,-0.9 0.45,-1.15 0.2,-1.3 -0.1,-1.35z M4.15,13.9 C4.15,13.95 4,14.3 3.75,14.85 3.45,15.4 3.2,15.8 3,16 2.95,16.05 2.95,16.05 2.9,16.1 2.95,16.05 3,16.05 3.05,16 3,16.05 2.9,16.15 2.85,16.2 2.8,16.25 2.8,16.3 2.8,16.35 3.15,16.2 3.4,16 3.6,15.7 4.2,14.85 4.45,14.05 4.4,13.25 4.3,13.4 4.25,13.55 4.2,13.7 4.2,13.75 4.2,13.85 4.15,13.9z"/>
        <path id="path1" fill="#FFC" d="M0.9,-0.5 C0.7,-0.55 0.6,-0.6 0.55,-0.65 0.3,-0.8 0.1,-0.9 -0.05,-1.05 -1.2,-1.2 -1.9,-0.5 -2.1,1.1 -2.15,1.6 -2.25,2.1 -2.4,2.6 L-2.5,2.6 C-2.5,2.95 -2.5,3.25 -2.45,3.6 L-2.475,3.6 L-2.45,3.6 C-2.4,3.35 -2.4,3.05 -2.35,2.8 -2.3,5.05 -2.3,7.3 -2.25,9.55 -2.25,9.75 -2.25,9.95 -2.25,10.2 -2.15,11.55 -2,12.95 -1.75,14.3 -1.7,14.75 -1.55,15.2 -1.3,15.55 L-1.325,15.525 L-1.3,15.5 C-0.55,16.7 0.55,17.05 2.05,16.5 2.3,16.4 2.55,16.3 2.75,16.15 2.8,16.15 2.8,16.15 2.85,16.1 L2.9,16.075 L2.9,16.1 C2.95,16.05 2.95,16.05 3,16 3.2,15.8 3.45,15.4 3.75,14.85 4,14.3 4.15,13.95 4.15,13.9 L4.1,13.9 C3.95,14.35 3.7,14.7 3.35,15.05 3.8,14.55 4,13.35 4,11.5 4,9.45 4,8.35 3.95,8.1 3.9,7.85 3.9,7.65 3.85,7.45 3.85,8.1 3.8,8.8 3.75,9.45 3.6,7.65 3.35,5.85 2.95,4.05 2.9,3.65 2.8,3.25 2.65,2.9 2.55,2.65 2.5,2.4 2.45,2.25 2.4,2.05 2.3,1.85 2.25,1.65 2.1,1.15 1.9,0.7 1.65,0.35 1.6,0.35 1.6,0.35 1.6,0.3 1.45,0.05 1.25,-0.15 1.05,-0.4 1,-0.45 0.95,-0.45 0.9,-0.5z M2.8,16.35 C2.8,16.3 2.8,16.25 2.85,16.2 2.75,16.25 2.65,16.35 2.55,16.4 2.65,16.35 2.75,16.35 2.8,16.35z"/>
      </g>
      <animate attributeName="display" begin="0s" repeatCount="indefinite" dur="0.167s" keyTimes="0;0.399;1" values="inline;none;none"/>
    </g>
  </g>
</svg>
